images/comment-Icon.svg

<svg width="53" height="52" viewBox="0 0 53 52" fill="none" xmlns="http://www.w3.org/2000/svg">
<g opacity="0.15">
<path d="M10.9666 38.3067C9.81108 37.0356 8.94441 35.6778 8.36664 34.2334C7.78886 32.789 7.49997 31.0267 7.49997 28.9467C7.49997 25.249 8.68441 21.8112 11.0533 18.6334C13.4222 15.4556 16.5711 13.0001 20.5 11.2667L22.4066 14.0401C16.9755 17.0445 13.9711 21.089 13.3933 26.1734C14.4333 25.4801 15.7622 25.249 17.38 25.4801C19.3444 25.7112 20.9911 26.549 22.32 27.9934C23.6489 29.4378 24.3133 31.1423 24.3133 33.1067C24.3133 35.0712 23.5911 36.8334 22.1466 38.3934C20.7022 39.9534 18.94 40.7334 16.86 40.7334C15.7044 40.7334 14.6066 40.5023 13.5666 40.0401C12.5266 39.5778 11.66 39.0001 10.9666 38.3067ZM32.6333 38.3067C31.4777 37.0356 30.6111 35.6778 30.0333 34.2334C29.4555 32.789 29.1666 31.0267 29.1666 28.9467C29.1666 25.249 30.3511 21.8112 32.72 18.6334C35.0889 15.4556 38.2377 13.0001 42.1666 11.2667L44.0733 14.0401C38.6422 17.0445 35.6377 21.089 35.06 26.1734C36.1 25.4801 37.4289 25.249 39.0466 25.4801C41.0111 25.7112 42.6577 26.549 43.9866 27.9934C45.3155 29.4378 45.98 31.1423 45.98 33.1067C45.98 35.0712 45.2866 36.8623 43.9 38.4801C42.6289 39.9823 40.8377 40.7334 38.5266 40.7334C37.3711 40.7334 36.2733 40.5023 35.2333 40.0401C34.1933 39.5778 33.3266 39.0001 32.6333 38.3067Z" fill="#EE421D"/>
</g>
</svg>

<svg xmlns="http://www.w3.org/2000/svg" width="53" height="52" fill="none"><path fill="#EE421D" d="M10.967 38.307q-1.734-1.907-2.6-4.074T7.5 28.947q0-5.547 3.553-10.314 3.554-4.766 9.447-7.366l1.907 2.773q-8.147 4.507-9.014 12.133 1.56-1.04 3.987-.693 2.946.347 4.94 2.513 1.993 2.168 1.993 5.114t-2.166 5.286q-2.167 2.34-5.287 2.34a8 8 0 0 1-3.293-.693q-1.56-.693-2.6-1.733m21.666 0q-1.733-1.907-2.6-4.074-.866-2.166-.866-5.286 0-5.547 3.553-10.314 3.553-4.766 9.447-7.366l1.906 2.773q-8.145 4.507-9.013 12.133 1.56-1.04 3.987-.693 2.945.347 4.94 2.513 1.992 2.168 1.993 5.114 0 2.946-2.08 5.373-1.907 2.253-5.373 2.253a8 8 0 0 1-3.294-.693q-1.56-.693-2.6-1.733" opacity=".15"/></svg>
